!!!COM: Beethoven
!!!OTL: 6 Variationen uber "Nel cor piu non mi sento" von G. Paisiello
!!!Variation: Theme a
**function	**kern	**kern	**kern
*	*	*clefF4	*clefG2
*	*	*k[f#]	*k[f#]
*M6/8	*M6/8	*M6/8	*M6/8
*G:	*G:	*G:	*G:
8T	8I	8r	8dd
=1	=1	=1	=1
4.T	4.I	8GL	4b
.	.	8B	.
.	.	8dJ	8b
4.T	4.V7	8DL	4a
.	.	8F#	.
.	.	8cJ	8a
=2	=2	=2	=2
2.T	2.I	8GL	4g
.	.	8B	.
.	.	8dJ	8g
.	.	8BL	4r
.	.	8G	.
.	.	8DJ	8dd
=3	=3	=3	=3
4.T	4.Ib	8BBL	4dd
.	.	8D	.
.	.	8GJ	8g
4.P	4.iib	8CL	4ee
.	.	8E	.
.	.	8AJ	8ee
=4	=4	=4	=4
4.D	4.V	8DL	4.a
.	.	8F#	.
.	.	8AJ	.
4D	4V	8DL	8r
.	.	8F#	8r
*-	*-	*-	*-
!!!COM: Beethoven
!!!OTL: 6 Variationen uber "Nel cor piu non mi sento" von G. Paisiello
!!!Variation: Theme b
**function	**kern	**kern	**kern
*	*	*clefF4	*clefG2
*	*	*k[f#]	*k[f#]
*M6/8	*M6/8	*M6/8	*M6/8
*G:	*G:	*G:	*G:
8T	8V	8AJ	8a
=5	=5	=5	=5
4.T	4.I	8GL	4b
.	.	8B	.
.	.	8dJ	8b
.	.	.	q8dd
4.T	4.V7c	8GL	8ccL
.	.	8A	8b
.	.	8cJ	8ccJ
=6	=6	=6	=6
4.T	4.I	8GL	4.dd
.	.	8B	.
.	.	8dJ	.
4.P	4.iib	8CL	4ee
.	.	8E	.
.	.	8AJ	8ee
=7	=7	=7	=7
.	.	.	(q8ee
4.D	4.Cc	8DL	4g)
.	.	8G	.
.	.	8BJ	8g
.	.	.	q8b
4.D	4.V7	8DL	8aL
.	.	8F#	8g
.	.	8cJ	8aJ
=8	=8	=8	=8
4.T	4.I	8GL	4g
.	.	8B	.
.	.	8dJ	8r
4T	4I	4G	4r
*-	*-	*-	*-
!!!COM: Beethoven
!!!OTL: 6 Variationen uber "Nel cor piu non mi sento" von G. Paisiello
!!!Variation: Theme c
**function	**kern	**kern	**kern
*	*	*clefF4	*clefG2
*	*	*k[f#]	*k[f#]
*M6/8	*M6/8	*M6/8	*M6/8
*G:	*G:	*G:	*G:
8T	8V	8r	8dd
=9	=9	=9	=9
2.P	2.V7/ii	8EL	4g#
.	.	8B	.
.	.	8dJ	8g#
.	.	8EL	4ee
.	.	8B	.
.	.	8dJ	8dd
=10	=10	=10	=10
.	.	.	q8dd
2.P	2.iic	8EL	8.ccL
.	.	8A	.
.	.	.	16cck
.	.	8cJ	8ccJ
.	.	8EL	8r
.	.	8A	8r
.	.	8cJ	8cc
=11	=11	=11	=11
2.D	2.V7	8DL	4f#
.	.	8A	.
.	.	8cJ	8f#
.	.	8DL	4dd
.	.	8A	.
.	.	8cJ	8cc
=12	=12	=12	=12
.	.	.	q8cc
4.D	4.Ic	8DL	8.bL
.	.	8G	.
.	.	.	16bk
.	.	8BJ	8bJ
4.D	4.Ic	8DL	8r
.	.	8G	8r
.	.	8BJ	8g
=13	=13	=13	=13
2.D	2.V7c/V	8EL	4cc#
.	.	8G	.
.	.	8AJ	8cc#
.	.	.	q8dd
.	.	8EL	8cc#L
.	.	8G	8b
.	.	8AJ	8cc#J
=14	=14	=14	=14
2.D	2.V	4.D; 4.F#; 4.A; 4.d;	4.f#; 4.a; 4.dd;
.	.	4r	4r
.	.	8r	8dd
=15	=15	=15	=15
.	.	.	q8dd
4.D	4.V7	8DL	4cc
.	.	8F#	.
.	.	8AJ	8cc
.	.	.	q8cc
4.D	4.Cc	8DL	4b
.	.	8G	.
.	.	8BJ	8b
=16	=16	=16	=16
4.D	4.V	8DL	[4.a
.	.	8F#	.
.	.	8AJ	.
4D	4V	8DL	4a]
.	.	8F#	.
*-	*-	*-	*-
!!!COM: Beethoven
!!!OTL: 6 Variationen uber "Nel cor piu non mi sento" von G. Paisiello
!!!Variation: Theme d
**function	**kern	**kern	**kern
*	*	*clefF4	*clefG2
*	*	*k[f#]	*k[f#]
*M6/8	*M6/8	*M6/8	*M6/8
*G:	*G:	*G:	*G:
8T	8V	8AJ	8a
=17	=17	=17	=17
4.T	4.I	8GL	4b
.	.	8B	.
.	.	8dJ	8b
4.T	4.V7c	8GL	8ccL
.	.	8A	8b
.	.	8cJ	8ccJ
=18	=18	=18	=18
4.T	4.I	8GL	4dd
.	.	8B	.
.	.	8dJ	8r
4.P	4.iib	8CL	4r
.	.	8E	.
.	.	8AJ	8ee
=19	=19	=19	=19
4.D	4.Cc	8DL	4g)
.	.	8G	.
.	.	8BJ	8g
4.D	4.V7	8DL	8aL
.	.	8F#	8g
.	.	8cJ	8aJ
=20	=20	=20	=20
4.T	4.I	8GL	4g
.	.	8B	.
.	.	8dJ	8r
4T	4I	4G	4r
*-	*-	*-	*-
!!!COM: Beethoven
!!!OTL: 6 Variationen uber "Nel cor piu non mi sento" von G. Paisiello
!!!Variation: Variation 1 a
**function	**kern	**kern	**kern
*	*	*clefF4	*clefG2
*	*	*k[f#]	*k[f#]
*M6/8	*M6/8	*M6/8	*M6/8
*G:	*G:	*G:	*G:
8T	8I	8r	8dd
=21	=21	=21	=21
4.T	4.I	4.G 4.d	16bLL
.	.	.	16a#
.	.	.	16b
.	.	.	16dd
.	.	.	16g
.	.	.	16bJJ
4.T	4.viio	4.G 4.c	16aLL
.	.	.	16g#
.	.	.	16a
.	.	.	16cc
.	.	.	16f#
.	.	.	16aJJ
=22	=22	=22	=22
2.T	2.I	4G 4B	16gLL
.	.	.	16d
.	.	.	16e
.	.	.	16f#
.	.	8r	16g
.	.	.	16aJJ
.	.	4.r	16bLL
.	.	.	16cc
.	.	.	16dd
.	.	.	16ee
.	.	.	16ff#
.	.	.	16ggJJ
=23	=23	=23	=23
*	*	*clefG2	*
4.T	4.Ib	4.B 4.g	16aaLL
.	.	.	16gg
.	.	.	16bb
.	.	.	16gg
.	.	.	16ff#
.	.	.	16eeJJ
4.P	4.IV	4.c 4.g	16dd#LL
.	.	.	16ee
.	.	.	16gg
.	.	.	16ee
.	.	.	16dd
.	.	.	16ccJJ
=24	=24	=24	=24
4.D	4.Cc	4.d 4.g	16bLL
.	.	.	16cc
.	.	.	16dd
.	.	.	16cc#
.	.	.	16ee
.	.	.	16ddJJ
4D	4V	4d 4f#	4a
*-	*-	*-	*-
!!!COM: Beethoven
!!!OTL: 6 Variationen uber "Nel cor piu non mi sento" von G. Paisiello
!!!Variation: Variation 1 b
**function	**kern	**kern	**kern
*	*	*clefF4	*clefG2
*	*	*k[f#]	*k[f#]
*M6/8	*M6/8	*M6/8	*M6/8
*G:	*G:	*G:	*G:
8T	8V	8r	8a#
=25	=25	=25	=25
4.T	4.I	(8G	16bLL
.	.	.	16a#
.	.	4d)	16b
.	.	.	16g
.	.	.	16a
.	.	.	16bJJ
4.T	4.V7c	(8A	16ccLL
.	.	.	16b
.	.	4d)	16cc
.	.	.	16a
.	.	.	16b
.	.	.	16ccJJ
=26	=26	=26	=26
4.T	4.Ib	(8B	16ddLL
.	.	.	16cc#
.	.	4g)	16dd
.	.	.	16b
.	.	.	16cc
.	.	.	16ddJJ
4.P	4.IV	(8c	16eeLL
.	.	.	16ff#
.	.	4g)	16gg
.	.	.	16dd#
.	.	.	16ee
.	.	.	16ccJJ
=27	=27	=27	=27
4.D	4.Cc	8dL	16bLL
.	.	.	16cc
.	.	8gJ	16cc#
.	.	.	16dd
.	.	8r	16b
.	.	.	16gJJ
4.D	4.V7	4.D 4.c	16dLL
.	.	.	16f#
.	.	.	16a
.	.	.	16cc
.	.	.	16a
.	.	.	16f#JJ
=28	=28	=28	=28
4.T	4.I	([4.G 4.c	8aL
.	.	.	16g#L
.	.	.	16a
.	.	.	16b
.	.	.	16aJJ
4T	4I	4G]) 4B	4g
*-	*-	*-	*-
!!!COM: Beethoven
!!!OTL: 6 Variationen uber "Nel cor piu non mi sento" von G. Paisiello
!!!Variation: Variation 1 c
**function	**kern	**kern	**kern
*	*	*clefF4	*clefG2
*	*	*k[f#]	*k[f#]
*M6/8	*M6/8	*M6/8	*M6/8
*G:	*G:	*G:	*G:
8T	8I	8r	16ddLL
.	.	.	16bJJ
=29	=29	=29	=29
4.P	4.V/ii	16ELL	4r
.	.	16G#	.
.	.	16B	.
.	.	16e	.
.	.	8r	16g#
.	.	.	16bJJ
4.P	4.Vb/ii	4G# 4e	16eeLL
.	.	.	16gg#
.	.	.	16bb
.	.	.	16gg#
.	.	8r	16ee
.	.	.	16ddJJ
=30	=30	=30	=30
2.P	2.ii	4A 4e	16ccLL
.	.	.	16dd
.	.	.	16ee
.	.	.	16dd
.	.	8r	16cc
.	.	.	16bJJ
.	.	4.r	16aLL
.	.	.	16b
.	.	.	16cc
.	.	.	16b
.	.	.	16a
.	.	.	16gJJ
=31	=31	=31	=31
4.D	4.V	4D 4d	16f#LL
.	.	.	16d
.	.	.	16f#
.	.	.	16a
.	.	8r	16dd
.	.	.	16ff#JJ
4.D	4.Vb	4F# 4d	16aaLL
.	.	.	16gg
.	.	.	16ff#
.	.	.	16ee
.	.	8r	16dd
.	.	.	16ccJJ
=32	=32	=32	=32
4.T	4.I	4G 4d	16bLL
.	.	.	16cc
.	.	.	16dd
.	.	.	16cc
.	.	8r	16b
.	.	.	16aJJ
4.T	4.I	4.r	16gLL
.	.	.	16a
.	.	.	16b-
.	.	.	16b
.	.	.	16cc
.	.	.	16cc#JJ
=33	=33	=33	=33
2.P	2.V7c/V	2.E 2.G 2.A	16ddLL
.	.	.	16dd#
.	.	.	16ee
.	.	.	16ff
.	.	.	16ff#
.	.	.	16ggJJ
.	.	.	16aaLL
.	.	.	16gg
.	.	.	16ff#
.	.	.	16ee
.	.	.	16dd
.	.	.	16cc#JJ
=34	=34	=34	=34
.	.	.	q8ee
2.D	2.V	4D; 4F#; 4A;	4dd;
.	.	8r	16cc#LL
.	.	.	16ddJJ
.	.	4r	16cc#LL
.	.	.	16dd
.	.	.	16cc#
.	.	.	16dd
.	.	8r	16ee
.	.	.	16ddJJ
=35	=35	=35	=35
4.D	4.V7b	(8F#	16ccLL
.	.	.	16b
.	.	4d)	16a
.	.	.	16dd
.	.	.	16cc#
.	.	.	16ddJJ
4.D	4.I	(8G	16bLL
.	.	.	16a
.	.	4d)	16g
.	.	.	16dd
.	.	.	16cc#
.	.	.	16ddJJ
=36	=36	=36	=36
2.D	2.V	(8D	16aLL
.	.	.	16g
.	.	4d)	16f#
.	.	.	16dd
.	.	.	16cc#
.	.	.	16ddJJ
.	.	4.r	16dLL
.	.	.	16dd
.	.	.	16f#
.	.	.	16dd
.	.	.	16a
.	.	.	16ddJJ
*-	*-	*-	*-
!!!COM: Beethoven
!!!OTL: 6 Variationen uber "Nel cor piu non mi sento" von G. Paisiello
!!!Variation: Variation 1 d
**function	**kern	**kern	**kern
*	*	*clefF4	*clefG2
*	*	*k[f#]	*k[f#]
*M6/8	*M6/8	*M6/8	*M6/8
*G:	*G:	*G:	*G:
=37	=37	=37	=37
4.T	4.I	(8G	16bLL
.	.	.	16a#
.	.	4d)	16b
.	.	.	16g
.	.	.	16a
.	.	.	16bJJ
4.T	4.V7c	(8A	16ccLL
.	.	.	16b
.	.	4d)	16cc
.	.	.	16a
.	.	.	16b
.	.	.	16ccJJ
=38	=38	=38	=38
4.T	4.Ib	(8B	16ddLL
.	.	.	16cc#
.	.	4g)	16dd
.	.	.	16b
.	.	.	16cc
.	.	.	16ddJJ
4.P	4.IV	(8c	16eeLL
.	.	.	16ff#
.	.	4g)	16gg
.	.	.	16dd#
.	.	.	16ee
.	.	.	16ccJJ
=39	=39	=39	=39
4.D	4.Cc	8dL	16bLL
.	.	.	16cc
.	.	8gJ	16cc#
.	.	.	16dd
.	.	8r	16b
.	.	.	16gJJ
4.D	4.V7	4.D 4.c	16dLL
.	.	.	16f#
.	.	.	16a
.	.	.	16cc
.	.	.	16a
.	.	.	16f#JJ
=40	=40	=40	=40
4.T	4.I	([4.G 4.c	8aL
.	.	.	16g#L
.	.	.	16a
.	.	.	16b
.	.	.	16aJJ
4T	4I	4G]) 4B	4g
*-	*-	*-	*-
!!!COM: Beethoven
!!!OTL: 6 Variationen uber "Nel cor piu non mi sento" von G. Paisiello
!!!Variation: Variation 2 a
**function	**kern	**kern	**kern
*	*	*clefF4	*clefG2
*	*	*k[f#]	*k[f#]
*M6/8	*M6/8	*M6/8	*M6/8
*G:	*G:	*G:	*G:
8T	8I	8r	8dd
=41	=41	=41	=41
4.T	4.I	16GGLL	(4bb
.	.	16AA	.
.	.	16BB	.
.	.	16C	.
.	.	16D	8dd)
.	.	16EJJ	.
4.T	4.V7	16F#LL	(4aa
.	.	16G	.
.	.	16A	.
.	.	16D	.
.	.	16E	8cc)
.	.	16F#JJ	.
=42	=42	=42	=42
2.T	2.I	16GLL	4b 4gg
.	.	16A	.
.	.	16B	.
.	.	16c	.
.	.	16d	8r
.	.	16eJJ	.
.	.	16f#LL	4r
.	.	16g	.
.	.	16f#	.
.	.	16e	.
.	.	16d	8g
.	.	16cJJ	.
=43	=43	=43	=43
4.T	4.I	16BLL	(4dd
.	.	16A	.
.	.	16B	.
.	.	16G	.
.	.	16A	8g)
.	.	16BJJ	.
4P	4ii	16cLL	(4ee
.	.	16B	.
.	.	16c	.
.	.	16A	.
8P	8V7/V	16B	8g)
.	.	16c#JJ	.
=44	=44	=44	=44
4.D	4.V	16dLL	4f# 4a
.	.	16c#	.
.	.	16d	.
.	.	16A	.
.	.	16F#	8r
.	.	16AJJ	.
4.D	4.V	4D	16aaLL
.	.	.	16gg
.	.	.	16ff#
.	.	.	16ee
.	.	8r	16dd
.	.	.	16ccJJ
*-	*-	*-	*-
!!!COM: Beethoven
!!!OTL: 6 Variationen uber "Nel cor piu non mi sento" von G. Paisiello
!!!Variation: Variation 2 b
**function	**kern	**kern	**kern
*	*	*clefF4	*clefG2
*	*	*k[f#]	*k[f#]
*M6/8	*M6/8	*M6/8	*M6/8
*G:	*G:	*G:	*G:
=45	=45	=45	=45
4.T	4.I	16GLL	(4b
.	.	16F#	.
.	.	16G	.
.	.	16D	.
.	.	16F#	8d)
.	.	16GJJ	.
4.T	4.V7	16ALL	(4cc
.	.	16G#	.
.	.	16A	.
.	.	16D	.
.	.	16G#	8d)
.	.	16AJJ	.
=46	=46	=46	=46
4.T	4.I	16BLL	(4dd
.	.	16A	.
.	.	16B	.
.	.	16G	.
.	.	16A	8g)
.	.	16BJJ	.
4P	4ii	16cLL	(4ee
.	.	16B	.
.	.	16c	.
.	.	16A	.
8P	8V7/V	16B	8g)
.	.	16c#JJ	.
=47	=47	=47	=47
4.D	4.Cc	16dLL	4g 4b
.	.	16c#	.
.	.	16d	.
.	.	16c#	.
.	.	16d	8r
.	.	16c#JJ	.
4.D	4.V7	16dLL	4a 4ff#
.	.	16e	.
.	.	16d	.
.	.	16c	.
.	.	16B	8r
.	.	16AJJ	.
=48	=48	=48	=48
4.T	4.I	16GLL	4b 4gg
.	.	16F#	.
.	.	16G	.
.	.	16D	.
.	.	16BB	8r
.	.	16DJJ	.
8T	8I	[8GG	8r
*-	*-	*-	*-
!!!COM: Beethoven
!!!OTL: 6 Variationen uber "Nel cor piu non mi sento" von G. Paisiello
!!!Variation: Variation 2 c
**function	**kern	**kern	**kern
*	*	*clefF4	*clefG2
*	*	*k[f#]	*k[f#]
*M6/8	*M6/8	*M6/8	*M6/8
*G:	*G:	*G:	*G:
4T	4I	8GG]	16dd
.	.	.	16cc
.	.	8r	16bb
.	.	.	16aa
=49	=49	=49	=49
2.P	2.V/ii	16ELL	4gg#
.	.	16G#	.
.	.	16B	.
.	.	16e	.
.	.	16d#	8r
.	.	16eJJ	.
.	.	16d#LL	8r
.	.	16e	.
.	.	16f	8bL 8gg#
.	.	16e	.
.	.	16d	8bJ 8gg#
.	.	16eJJ	.
=50	=50	=50	=50
4.P	4.iib	16cLL	8ccL 8aa
.	.	16e	.
.	.	16c	8cc 8aa
.	.	16e	.
.	.	16B	8ddJ 8bb
.	.	16eJJ	.
4.P	4.ii	4A	16eeLL 16ccc
.	.	.	16ddd
.	.	.	16ccc
.	.	.	16bb
.	.	8r	16aa
.	.	.	16ggJJ
=51	=51	=51	=51
2.D	2.V	16DLL	4ff#
.	.	16F#	.
.	.	16A	.
.	.	16d	.
.	.	16c#	8r
.	.	16dJJ	.
.	.	16c#LL	8r
.	.	16d	.
.	.	16e	8aL 8ff#
.	.	16d	.
.	.	16c	8aJ 8ff#
.	.	16dJJ	.
=52	=52	=52	=52
4.D	4.Ib	16BLL	8bL 8gg
.	.	16d	.
.	.	16B	8b 8gg
.	.	16d	.
.	.	16A	8ccJ 8aa
.	.	16dJJ	.
4.D	4.I	16GLL	4dd 4bb
.	.	16A	.
.	.	16B	.
.	.	16A	.
.	.	16G	8r
.	.	16F#JJ	.
=53	=53	=53	=53
4.D	4.vi	16ELL	4gg 4bb
.	.	16F#	.
.	.	16G	.
.	.	16F#	.
.	.	16E	8r
.	.	16DJJ	.
4.D	4.V7/V	16C#LL	4ee 4gg 4eee
.	.	16BB	.
.	.	16C#	.
.	.	16AA	.
.	.	16BB	8r
.	.	16C#JJ	.
=54	=54	=54	=54
2.D	2.V	16DLL	[4.dd [4.ff# [4.aa
.	.	16C#	.
.	.	16D	.
.	.	16C#	.
.	.	16D	.
.	.	16C#JJ	.
.	.	4D;	4dd;] 4ff#;] 4aa;]
.	.	8r	8d
=55	=55	=55	=55
4.D	4.V7	16F#LL	(4a 4cc
.	.	16E	.
.	.	16F#	.
.	.	16D	.
.	.	16E	8d)
.	.	16F#JJ	.
4.D	4.Cc	16GLL	(4g 4b
.	.	16F#	.
.	.	16G	.
.	.	16D	.
.	.	16F#	8d)
.	.	16GJJ	.
=56	=56	=56	=56
4.D	4.V	16ALL	4f# 4a
.	.	16G#	.
.	.	16A	.
.	.	16D	.
.	.	16F#	8r
.	.	16AJJ	.
4.D	4.V	4d	16aaLL
.	.	.	16gg
.	.	.	16ff#
.	.	.	16ee
.	.	8r	16dd
.	.	.	16ccJJ
*-	*-	*-	*-
!!!COM: Beethoven
!!!OTL: 6 Variationen uber "Nel cor piu non mi sento" von G. Paisiello
!!!Variation: Variation 2 d
**function	**kern	**kern	**kern
*	*	*clefF4	*clefG2
*	*	*k[f#]	*k[f#]
*M6/8	*M6/8	*M6/8	*M6/8
*G:	*G:	*G:	*G:
=57	=57	=57	=57
4.T	4.I	16GLL	(4b
.	.	16F#	.
.	.	16G	.
.	.	16D	.
.	.	16F#	8d)
.	.	16GJJ	.
4.T	4.V7	16ALL	(4cc
.	.	16G#	.
.	.	16A	.
.	.	16D	.
.	.	16G#	8d)
.	.	16AJJ	.
=58	=58	=58	=58
4.T	4.I	16BLL	(4dd
.	.	16A	.
.	.	16B	.
.	.	16G	.
.	.	16A	8g)
.	.	16BJJ	.
4P	4ii	16cLL	(4ee
.	.	16B	.
.	.	16c	.
.	.	16A	.
8P	8V7/V	16B	8g)
.	.	16c#JJ	.
=59	=59	=59	=59
4.D	4.Cc	16dLL	4g 4b
.	.	16c#	.
.	.	16d	.
.	.	16c#	.
.	.	16d	8r
.	.	16c#JJ	.
4.D	4.V	16dLL	4a 4ff#
.	.	16e	.
.	.	16d	.
.	.	16c	.
.	.	16B	8r
.	.	16AJJ	.
=60	=60	=60	=60
4.T	4.I	16GLL	4b 4gg
.	.	16F#	.
.	.	16G	.
.	.	16D	.
.	.	16BB	8r
.	.	16DJJ	.
4T	4I	4GG	4.r
*-	*-	*-	*-
!!!COM: Beethoven
!!!OTL: 6 Variationen uber "Nel cor piu non mi sento" von G. Paisiello
!!!Variation: Variation 3 a
**function	**kern	**kern	**kern
*	*	*clefF4	*clefG2
*	*	*k[f#]	*k[f#]
*M6/8	*M6/8	*M6/8	*M6/8
*G:	*G:	*G:	*G:
8T	8I	8r	8d
=61	=61	=61	=61
4.T	4.I	4G	16r
.	.	.	(16BLL
.	.	.	16d
.	.	.	16gJ
.	.	8r	8bJ)
4.T	4.V7	4D	16r
.	.	.	(16ALL
.	.	.	16c
.	.	.	16f#J
.	.	8r	8aJ)
=62	=62	=62	=62
2.T	2.I	16r	4B 4g
.	.	(16GGGLL	.
.	.	16BBB	.
.	.	16DDJ	.
.	.	8GGJ)	8r
.	.	16r	8ddL
.	.	(16GGLL	.
.	.	16BB	8b
.	.	16DJ	.
.	.	8GJ)	8gJ
=63	=63	=63	=63
4.T	4.I	4G 4B	16r
.	.	.	16dLL
.	.	.	16g
.	.	.	16bJ
.	.	8r	8ddJ
4.P	4.IV	4C 4c	16r
.	.	.	16eLL
.	.	.	16g
.	.	.	16ccJ
.	.	8r	8eeJ
=64	=64	=64	=64
4.D	4.V	16r	4d 4f# 4a
.	.	16DDLL	.
.	.	16FF#	.
.	.	16AAJ	.
.	.	8DJ	8r
4.D	4.V7	16r	8aaL
.	.	16DLL	.
.	.	16F#	8ff#
.	.	16AJ	.
.	.	8dJ	8ccJ
*-	*-	*-	*-
!!!COM: Beethoven
!!!OTL: 6 Variationen uber "Nel cor piu non mi sento" von G. Paisiello
!!!Variation: Variation 3 b
**function	**kern	**kern	**kern
*	*	*clefF4	*clefG2
*	*	*k[f#]	*k[f#]
*M6/8	*M6/8	*M6/8	*M6/8
*G:	*G:	*G:	*G:
=65	=65	=65	=65
4.T	4.I	4G	16r
.	.	.	16BLL
.	.	.	16d
.	.	.	16gJ
.	.	8r	8bJ
4.T	4.viiob	16r	4cc
.	.	16AALL	.
.	.	16C	.
.	.	16F#J	.
.	.	8AJ	8r
=66	=66	=66	=66
4.T	4.Ib	4BB	16r
.	.	.	16dLL
.	.	.	16g
.	.	.	16bJ
.	.	8r	8ddJ
4.P	4.iib	16r	4ee
.	.	16CLL	.
.	.	16E	.
.	.	16AJ	.
.	.	8cJ	8r
=67	=67	=67	=67
4.D	4.Cc	4D	16r
.	.	.	16GLL
.	.	.	16B
.	.	.	16dJ
.	.	8r	8gJ
4.D	4.V7	4DD	16r
.	.	.	16ALL
.	.	.	16c
.	.	.	16dJ
.	.	8r	8f#J
=68	=68	=68	=68
4.T	4.I	16r	4.c 4.f# 4.a
.	.	16GGLL	.
.	.	16BB	.
.	.	16DJ	.
.	.	8GJ	.
4T	4I	4GG	4B 4d 4g
*-	*-	*-	*-
!!!COM: Beethoven
!!!OTL: 6 Variationen uber "Nel cor piu non mi sento" von G. Paisiello
!!!Variation: Variation 3 c
**function	**kern	**kern	**kern
*	*	*clefF4	*clefG2
*	*	*k[f#]	*k[f#]
*M6/8	*M6/8	*M6/8	*M6/8
*G:	*G:	*G:	*G:
8T	8V	8d	8r
=69	=69	=69	=69
4.P	4.Vb/ii	4G#	16r
.	.	.	16eLL
.	.	.	16g#
.	.	.	16bJ
.	.	8r	8eeJ
4.P	4.V7d/ii	4d	16r
.	.	.	16eeLL
.	.	.	16gg#
.	.	.	16bbJ
.	.	8r	8eeeJ
=70	=70	=70	=70
4.P	4.iib	4c	16r
.	.	.	16eeLL
.	.	.	16aa
.	.	.	16cccJ
.	.	8r	8eeeJ
4.P	4.ii	16r	4.ee 4.aa 4.ccc 4.eee
.	.	16AALL	.
.	.	16C	.
.	.	16EJ	.
.	.	8AJ	.
=71	=71	=71	=71
4.D	4.Vb	4F#	16r
.	.	.	16dLL
.	.	.	16f#
.	.	.	16aJ
.	.	8r	8ddJ
4.D	4.V7d	4c	16r
.	.	.	16ddLL
.	.	.	16ff#
.	.	.	16aaJ
.	.	8r	8dddJ
=72	=72	=72	=72
4.D	4.Ib	4B	16r
.	.	.	16ddLL
.	.	.	16gg
.	.	.	16bbJ
.	.	8r	8dddJ
4.D	4.I	16r	4.dd 4.gg 4.bb 4.ddd
.	.	16GGLL	.
.	.	16BB	.
.	.	16DJ	.
.	.	8GJ	.
=73	=73	=73	=73
2.D	2.viiob/V	4E	16r
.	.	.	16GLL
.	.	.	16c#
.	.	.	16eJ
.	.	8r	8gJ
.	.	4E	16r
.	.	.	16gLL
.	.	.	16cc#
.	.	.	16eeJ
.	.	8r	8ggJ
=74	=74	=74	=74
2.D	2.V	4D	8r
.	.	.	16ff#LL
.	.	.	16gg
.	.	8r	16aa
.	.	.	16ff#JJ
.	.	4r	4dd;
.	.	8r	8dd
=75	=75	=75	=75
4.D	4.V7b	16r	4.a 4.cc 4.dd
.	.	16FF#LL	.
.	.	16AA	.
.	.	16DJ	.
.	.	8F#J	.
4.D	4.I	16r	4.g 4.b 4.dd
.	.	16GGLL	.
.	.	16BB	.
.	.	16DJ	.
.	.	8GJ	.
=76	=76	=76	=76
2.T	2.V	16r	4f# 4a 4dd
.	.	16DDLL	.
.	.	16FF#	.
.	.	16AAJ	.
.	.	8DJ	8r
.	.	4D	16r
.	.	.	16dLL
.	.	.	16f#
.	.	.	16aJ
.	.	8r	8ddJ
*-	*-	*-	*-
!!!COM: Beethoven
!!!OTL: 6 Variationen uber "Nel cor piu non mi sento" von G. Paisiello
!!!Variation: Variation 3 d
**function	**kern	**kern	**kern
*	*	*clefF4	*clefG2
*	*	*k[f#]	*k[f#]
*M6/8	*M6/8	*M6/8	*M6/8
*G:	*G:	*G:	*G:
=77	=77	=77	=77
4.T	4.I	16r	4d 4g 4b
.	.	16GGLL	.
.	.	16BB	.
.	.	16DJ	.
.	.	8GJ	8r
4.T	4.viiob	4AA	16r
.	.	.	16cLL
.	.	.	16f#
.	.	.	16aJ
.	.	8r	8ccJ
=78	=78	=78	=78
4.T	4.Ib	16r	4d 4g 4dd
.	.	16BBLL	.
.	.	16D	.
.	.	16GJ	.
.	.	8BJ	8r
4.P	4.IV	4.C	16r
.	.	.	16eLL
.	.	.	16g
.	.	.	16ccJ
.	.	.	8eeJ
=79	=79	=79	=79
4.D	4.Cc	4D	16r
.	.	.	16GLL
.	.	.	16B
.	.	.	16dJ
.	.	8r	8gJ
4.D	4.V7	4DD	16r
.	.	.	16ALL
.	.	.	16c
.	.	.	16dJ
.	.	8r	8f#J
=80	=80	=80	=80
4.T	4.I	16r	4.c 4.f# 4.a
.	.	16GGLL	.
.	.	16BB	.
.	.	16DJ	.
.	.	8GJ	.
4T	4I	4GG	4B 4d 4g
*-	*-	*-	*-
!!!COM: Beethoven
!!!OTL: 6 Variationen uber "Nel cor piu non mi sento" von G. Paisiello
!!!Variation: Variation 4 a
**function	**kern	**kern	**kern
*	*	*clefF4	*clefG2
*	*	*k[b-e-]	*k[b-e-]
*M6/8	*M6/8	*M6/8	*M6/8
*g:	*g:	*g:	*g:
8T	8i	8r	([8dd
=81	=81	=81	=81
*	*	*	*^
4.T	4.i	4.G 4.B-	4.g	8ddL]
.	.	.	.	8cc
.	.	.	.	[8b-J
4.T	4.V7	4.D 4.c	4.f#	8b-L]
.	.	.	.	8b-
.	.	.	.	[8aJ
=82	=82	=82	=82	=82
2.T	2.i	4G 4B-	4d	8aL])
.	.	.	.	(8a
*	*	*	*v	*v
.	.	8r	8gJ
.	.	4.r	8f#L
.	.	.	8g
.	.	.	8b-J)
=83	=83	=83	=83
4.T	4.ib	4.B- 4.g	(8ddL
.	.	.	8cc#
.	.	.	8ddJ)
4.P	4.iv	4.c 4.g	8r
.	.	.	(8ffL
.	.	.	8ee-J)
=84	=84	=84	=84
2.D	2.V7	4d 4f#	8r
.	.	.	(8g#L
.	.	8r	8aJ
.	.	4.r	8b-L
.	.	.	8b
.	.	.	8ccJ)
*-	*-	*-	*-
!!!COM: Beethoven
!!!OTL: 6 Variationen uber "Nel cor piu non mi sento" von G. Paisiello
!!!Variation: Variation 4 b
**function	**kern	**kern	**kern
*	*	*clefF4	*clefG2
*	*	*k[b-e-]	*k[b-e-]
*M6/8	*M6/8	*M6/8	*M6/8
*g:	*g:	*g:	*g:
=85	=85	=85	=85
*	*	*^	*^
4.T	4.V7m9/iv	2.G	4.d	4.f 4.a-	8r
.	.	.	.	.	(8ccL
.	.	.	.	.	8bJ)
4.T	4.ivc	.	4.e-	4.g	8r
.	.	.	.	.	(8ddL
.	.	.	.	.	8ccJ)
*	*	*v	*v	*	*
=86	=86	=86	=86	=86
4.T	4.V/iv	4.G 4.B	4.g	8r
.	.	.	.	(8ee-L
.	.	.	.	8ddJ)
4.P	4.iv	4.C 4.c	4.g	8r
.	.	.	.	(8ffL
.	.	.	.	8ee-J)
*	*	*	*v	*v
=87	=87	=87	=87
4.D	4.Cc	4.D 4.B- 4.d	8r
.	.	.	(8ee-L
.	.	.	8gJ)
4.D	4.V7	4.D 4.A 4.c	8r
.	.	.	(8gL
.	.	.	8f#J)
=88	=88	=88	=88
*	*	*^	*
4.T	4.i	[4.GG	(8GGL	4.c 4.a
.	.	.	8D	.
.	.	.	8F#J	.
4T	4i	4GG]	4G)	4B- 4g
*	*	*v	*v	*
*-	*-	*-	*-
!!!COM: Beethoven
!!!OTL: 6 Variationen uber "Nel cor piu non mi sento" von G. Paisiello
!!!Variation: Variation 4 c
**function	**kern	**kern	**kern
*	*	*clefF4	*clefG2
*	*	*k[b-e-]	*k[b-e-]
*M6/8	*M6/8	*M6/8	*M6/8
*g:	*g:	*g:	*g:
8T	8i	8r	(8dd
=89	=89	=89	=89
4.P	4.iiom7/iv	4d 4f	8ccL
.	.	.	8b
.	.	8r	8a-J
4.P	4.V/iv	4r	8gL
.	.	.	8aa-
.	.	(8BB	8ggJ)
=90	=90	=90	=90
2.P	2.iv	8CL	(4ff
.	.	8E-	.
.	.	8GJ	8ee-)
.	.	8cL	4r
.	.	8d	.
.	.	8e-J)	(8cc
=91	=91	=91	=91
4.P	4.VI	4e-	8b-L
.	.	.	8a
.	.	8r	8gJ
4.P	4.Vb	4r	8f#L
.	.	.	8ee-
.	.	(8FF#	8ddJ)
=92	=92	=92	=92
2.P	2.i	8GGL	(4cc
.	.	8BB-	.
.	.	8DJ	8b-)
.	.	8GL	4r
.	.	8A	.
*	*	*	*^
.	.	8B-J)	8g	8dd
=93	=93	=93	=93	=93
2.P	2.Gn	4E- 4B-	4g	4dd
.	.	8E- 8B-	8g	8cc#
.	.	4E- 4B-	4g	4gg
.	.	8E- 8B-	8g	8cc#
=94	=94	=94	=94	=94
2.D	2.V	4.D; 4.B-;	4.g	4.cc#;
.	.	.	.	q32dd
.	.	.	.	q32cc#
.	.	.	.	q32bn
.	.	.	.	q32cc#
.	.	.	.	q8.een
.	.	.	.	q16dd
.	.	4D; 4A;	4f#	4dd;
*	*	*	*v	*v
.	.	8r	8dd
=95	=95	=95	=95
*	*	*^	*
4.D	4.V7b	4.F#	8r	4a 4cc
.	.	.	(8e-L	.
.	.	.	8dJ)	8a 8cc
4.D	4.i	4.G	8r	4g 4b-
.	.	.	(8e-L	.
.	.	.	8dJ)	8g 8b-
*	*	*v	*v	*
=96	=96	=96	=96
4.D	4.V	8DL	[4.f# [4.a
.	.	(8e-	.
.	.	8dJ	.
4D	4V	8c#L	4f#] 4a]
.	.	8dJ)	.
*-	*-	*-	*-
!!!COM: Beethoven
!!!OTL: 6 Variationen uber "Nel cor piu non mi sento" von G. Paisiello
!!!Variation: Variation 4 d
**function	**kern	**kern	**kern
*	*	*clefF4	*clefG2
*	*	*k[b-e-]	*k[b-e-]
*M6/8	*M6/8	*M6/8	*M6/8
*g:	*g:	*g:	*g:
8D	8V	8r	[8cc
=97	=97	=97	=97
*	*	*^	*^
4.T	4.V7m9/iv	2.G	4.d	4.f 4.a-	8ccL]
.	.	.	.	.	(8cc
.	.	.	.	.	8bJ)
4.T	4.ivc	.	4.e-	4.g	8r
.	.	.	.	.	(8ddL
.	.	.	.	.	8ccJ)
*	*	*v	*v	*	*
=98	=98	=98	=98	=98
4.T	4.V/iv	4.G 4.B	4.g	8r
.	.	.	.	(8ee-L
.	.	.	.	8ddJ)
4.P	4.iv	4.C 4.c	4.g	8r
.	.	.	.	(8ffL
.	.	.	.	8ee-J)
*	*	*	*v	*v
=99	=99	=99	=99
4.D	4.Cc	4.D 4.B- 4.d	8r
.	.	.	(8ee-L
.	.	.	8gJ)
4.D	4.V7	4.D 4.A 4.c	8r
.	.	.	(8gL
.	.	.	8f#J)
=100	=100	=100	=100
*	*	*^	*
4.T	4.i	[4.GG	(8GGL	4.c 4.a
.	.	.	8D	.
.	.	.	8F#J	.
4T	4i	4GG]	4G)	4B- 4g
*	*	*v	*v	*
*-	*-	*-	*-
!!!COM: Beethoven
!!!OTL: 6 Variationen uber "Nel cor piu non mi sento" von G. Paisiello
!!!Variation: Variation 5 a
**function	**kern	**kern	**kern
*	*	*clefG2	*clefG2
*	*	*k[f#]	*k[f#]
*M6/8	*M6/8	*M6/8	*M6/8
*G:	*G:	*G:	*G:
8T	8I	8b 8dd	8r
=101	=101	=101	=101
4.T	4.I	4g' 4b'	24r
.	.	.	24dddLL
.	.	.	24cccJ
.	.	.	24bbL
.	.	.	24bb-
.	.	.	24aaJ
.	.	8g' 8b'	8ggJ
4.T	4.V7	4d' 4a'	24r
.	.	.	24cccLL
.	.	.	24bbJ
.	.	.	24aaL
.	.	.	24gg#
.	.	.	24ggJ
.	.	8d' 8a'	8ff#J
=102	=102	=102	=102
2.T	2.I	4B 4g	24r
.	.	.	24bbLL
.	.	.	24aaJ
.	.	.	24ggL
.	.	.	24ff#
.	.	.	24eeJ
.	.	8r	24ddL
.	.	.	24cc
.	.	.	24bJJ
.	.	4.r	24aLL
.	.	.	24g
.	.	.	24f#J
.	.	.	24gL
.	.	.	24b
.	.	.	24ddJ
.	.	.	8ggJ
=103	=103	=103	=103
4.T	4.Ib	4b' 4dd'	24r
.	.	.	24ggLL
.	.	.	24aaJ
.	.	.	24bbL
.	.	.	24ccc
.	.	.	24ccc#J
.	.	8b' 8dd'	8dddJ
4.P	4.IV	4cc' 4ee'	24r
.	.	.	24aaLL
.	.	.	24bbJ
.	.	.	24cccL
.	.	.	24ddd
.	.	.	24ddd#J
.	.	8cc' 8ee'	8eeeJ
=104	=104	=104	=104
2D	2V	4d 4a	24r
.	.	.	24aaLL
.	.	.	24ggJ
.	.	.	24ff#L
.	.	.	24ee
.	.	.	24ddJ
.	.	8r	24cc#L
.	.	.	24b
.	.	.	24aJJ
.	.	4r	24gLL
.	.	.	24f#
.	.	.	24eJ
8D	8V	.	8dJ
*-	*-	*-	*-
!!!COM: Beethoven
!!!OTL: 6 Variationen uber "Nel cor piu non mi sento" von G. Paisiello
!!!Variation: Variation 5 b
**function	**kern	**kern	**kern
*	*	*clefG2	*clefG2
*	*	*k[f#]	*k[f#]
*M6/8	*M6/8	*M6/8	*M6/8
*G:	*G:	*G:	*G:
8D	8V	8d 8a	8r
=105	=105	=105	=105
4.T	4.I	4g 4b	8r
.	.	.	24ggLL
.	.	.	24aa
.	.	.	24ff#J
.	.	8g 8b	8ggJ
4.T	4.viiob	4a 4cc	8r
.	.	.	24ggLL
.	.	.	24aa
.	.	.	24ff#J
.	.	8a 8cc	8ggJ
=106	=106	=106	=106
4.T	4.Ib	4b 4dd	8r
.	.	.	24ggLL
.	.	.	24aa
.	.	.	24ff#J
.	.	8b 8dd	8ggJ
4.P	4.IV	4cc 4ee	8r
.	.	.	24ggLL
.	.	.	24aa
.	.	.	24ff#J
.	.	8r	24ggL
.	.	.	24aa
.	.	.	24ff#JJ
=107	=107	=107	=107
*	*	*clefF4	*
4.D	4.Cc	4.D 4.G 4.B	24ggLL
.	.	.	24ddd
.	.	.	24cccJ
.	.	.	24bbL
.	.	.	24aa
.	.	.	24ggJ
.	.	.	24ff#L
.	.	.	24ee
.	.	.	24ddJJ
4.D	4.V7	4.D 4.A 4.c	24ccLL
.	.	.	24b
.	.	.	24aJ
.	.	.	24gL
.	.	.	24f#
.	.	.	24aJ
.	.	.	24ccL
.	.	.	24a
.	.	.	24f#JJ
=108	=108	=108	=108
4.T	4.I	([4.G 4.c	(4.a
4T	4I	4G]) 4B	4g)
*-	*-	*-	*-
!!!COM: Beethoven
!!!OTL: 6 Variationen uber "Nel cor piu non mi sento" von G. Paisiello
!!!Variation: Variation 5 c
**function	**kern	**kern	**kern
*	*	*clefG2	*clefG2
*	*	*k[f#]	*k[f#]
*M6/8	*M6/8	*M6/8	*M6/8
*G:	*G:	*G:	*G:
8D	8V	8dd	8r
=109	=109	=109	=109
2.D	2.V7b/ii	4g#	24r
.	.	.	24eeLL
.	.	.	24ff#J
.	.	.	24gg#L
.	.	.	24aa
.	.	.	24aa#J
.	.	8g#	8bbJ
.	.	4g# 4dd	8r
.	.	.	8eeeL
.	.	8g# 8dd	8eeeJ
=110	=110	=110	=110
4.P	4.ii	4a 4cc	24eeeLL
.	.	.	24ddd
.	.	.	24ccc#J
.	.	.	24cccL
.	.	.	24bb
.	.	.	24bb-J
.	.	8r	8aaJ
4.P	4.ii	(8ccL	4r
.	.	8a	.
.	.	8gJ)	8aa
=111	=111	=111	=111
2.D	2.V7b	4f#	24r
.	.	.	24ddLL
.	.	.	24eeJ
.	.	.	24ff#L
.	.	.	24gg
.	.	.	24gg#J
.	.	8f#	8aaJ
.	.	4f# 4cc	8r
.	.	.	8dddL
.	.	8f# 8cc	8dddJ
=112	=112	=112	=112
2.D	2.I	4g 4b	24dddLL
.	.	.	24ccc#
.	.	.	24cccJ
.	.	.	24bbL
.	.	.	24bb-
.	.	.	24aaJ
.	.	8r	8ggJ
*	*	*clefF4	*
.	.	(8GL	8r
.	.	8E	8ggL
.	.	8DJ)	8ggJ
=113	=113	=113	=113
4.D	4.V7b/V	4C#	24ggLL
.	.	.	24ff#
.	.	.	24eeJ
.	.	.	24ddL
.	.	.	24cc#
.	.	.	24bJ
.	.	8r	24aL
.	.	.	24g
.	.	.	24f#JJ
4.D	4.V7/V	4.AA 4.E 4.G	24eLL
.	.	.	24d
.	.	.	24c#J
.	.	.	24gL
.	.	.	24e
.	.	.	24c#J
.	.	.	24gL
.	.	.	24e
.	.	.	24c#JJ
=114	=114	=114	=114
2.D	2.V	4.D; 4.G;	4.e;
.	.	.	q16f#
.	.	.	q16e
.	.	8D 8F#	8d
.	.	8r;	8r;
*	*	*clefG2	*
.	.	8d	8r
=115	=115	=115	=115
4.D	4.V7	4a 4cc	8r
.	.	.	(24ddLL
.	.	.	24ee
.	.	.	24cc#J)
.	.	8a 8cc	8ddJ
4.D	4.Ic	4g 4b	8r
.	.	.	(24ddLL
.	.	.	24ee
.	.	.	24cc#J)
.	.	8g 8b	8ddJ
=116	=116	=116	=116
2.D	2.Vb	4f# 4a	8r
.	.	.	24dddLL
.	.	.	24eee
.	.	.	24ccc#J
.	.	8r	24dddL
.	.	.	24eee
.	.	.	24ccc#JJ
.	.	4r	4ddd
.	.	8f# 8a	8r
*-	*-	*-	*-
!!!COM: Beethoven
!!!OTL: 6 Variationen uber "Nel cor piu non mi sento" von G. Paisiello
!!!Variation: Variation 5 d
**function	**kern	**kern	**kern
*	*	*clefG2	*clefG2
*	*	*k[f#]	*k[f#]
*M6/8	*M6/8	*M6/8	*M6/8
*G:	*G:	*G:	*G:
=117	=117	=117	=117
4.T	4.I	4g 4b	8r
.	.	.	24ggLL
.	.	.	24aa
.	.	.	24ff#J
.	.	8g 8b	8ggJ
4.T	4.viiob	4a 4cc	8r
.	.	.	24ggLL
.	.	.	24aa
.	.	.	24ff#J
.	.	8a 8cc	8ggJ
=118	=118	=118	=118
4.T	4.Ib	4b 4dd	8r
.	.	.	24ggLL
.	.	.	24aa
.	.	.	24ff#J
.	.	8b 8dd	24ggL
.	.	.	24aa
.	.	.	24ff#JJ
4.P	4.IV	4cc 4ee	24ggLL
.	.	.	24aa
.	.	.	24ff#J
.	.	.	24ggL
.	.	.	24aa
.	.	.	24ff#J
.	.	8r	24ggL
.	.	.	24aa
.	.	.	24ff#JJ
=119	=119	=119	=119
*	*	*clefF4	*
4.D	4.Cc	4.D 4.G 4.B	24ggLL
.	.	.	24ff#
.	.	.	24eeJ
.	.	.	24ddL
.	.	.	24cc
.	.	.	24bJ
.	.	.	24aL
.	.	.	24g
.	.	.	24f#JJ
4.D	4.V7	4.D 4.A 4.c	24eLL
.	.	.	24d
.	.	.	24c#J
.	.	.	24dL
.	.	.	24f#
.	.	.	24aJ
.	.	.	24ccL
.	.	.	24a
.	.	.	24f#JJ
=120	=120	=120	=120
4.T	4.I	([4.G 4.c	(4.a
4T	4I	4G]) 4B	4g)
*-	*-	*-	*-
!!!COM: Beethoven
!!!OTL: 6 Variationen uber "Nel cor piu non mi sento" von G. Paisiello
!!!Variation: Variation 6 a
**function	**kern	**kern	**kern
*	*	*clefF4	*clefG2
*	*	*k[f#]	*k[f#]
*M6/8	*M6/8	*M6/8	*M6/8
*G:	*G:	*G:	*G:
8T	8I	8r	16ddLL
.	.	.	16dJJ
=121	=121	=121	=121
4.T	4.I	16GGLL	16bLL
.	.	16G	16d
.	.	16D	16cc
.	.	16G	16d
.	.	16GG	16b
.	.	16GJJ	16dJJ
4.T	4.V7	16GGLL	16aLL
.	.	16F#	16c
.	.	16D	16b
.	.	16F#	16c
.	.	16GG	16a
.	.	16F#JJ	16cJJ
=122	=122	=122	=122
2.T	2.I	16GGLL	16gLL
.	.	16G	16B
.	.	16D	16f#
.	.	16G	16B
.	.	16GG	16g
.	.	16GJJ	16BJJ
.	.	16GGLL	16dLL
.	.	16G	16B
.	.	16D	16g
.	.	16G	16B
.	.	16GG	16b
.	.	16GJJ	16BJJ
=123	=123	=123	=123
4.T	4.Ib	16BBLL	16ddLL
.	.	16B	16d
.	.	16G	16cc#
.	.	16B	16d
.	.	16BB	16dd
.	.	16BJJ	16dJJ
4.P	4.IV	16CLL	16eeLL
.	.	16c	16e
.	.	16G	16dd#
.	.	16c	16e
.	.	16C	16ee
.	.	16cJJ	16eJJ
=124	=124	=124	=124
2.D	2.V	16DLL	16aLL
.	.	16A	16d
.	.	16F#	16g#
.	.	16A	16d
.	.	16F#	16a
.	.	16AJJ	16dJJ
.	.	16DLL	16aLL
.	.	16A	16d
.	.	16F#	16a
.	.	16A	16d
.	.	16D	16a
.	.	16AJJ	16dJJ
*-	*-	*-	*-
!!!COM: Beethoven
!!!OTL: 6 Variationen uber "Nel cor piu non mi sento" von G. Paisiello
!!!Variation: Variation 6 b
**function	**kern	**kern	**kern
*	*	*clefF4	*clefG2
*	*	*k[f#]	*k[f#]
*M6/8	*M6/8	*M6/8	*M6/8
*G:	*G:	*G:	*G:
=125	=125	=125	=125
4.T	4.I	16GGLL	16bLL
.	.	16G	16d
.	.	16D	16a#
.	.	16G	16d
.	.	16GG	16b
.	.	16GJJ	16dJJ
4.T	4.V7c	16AALL	16ccLL
.	.	16A	16d
.	.	16D	16b
.	.	16A	16d
.	.	16AA	16cc
.	.	16AJJ	16dJJ
=126	=126	=126	=126
4.T	4.Ib	16BBLL	16ddLL
.	.	16B	16d
.	.	16G	16cc#
.	.	16B	16d
.	.	16BB	16dd
.	.	16BJJ	16dJJ
4.P	4.IV	16CLL	16eeLL
.	.	16c	16e
.	.	16G	16dd#
.	.	16c	16e
.	.	16C	16ee
.	.	16cJJ	16eJJ
=127	=127	=127	=127
4.D	4.Cc	16DLL	16eeLL
.	.	16B	16d
.	.	16G	16g
.	.	16B	16d
.	.	16D	16g
.	.	16BJJ	16dJJ
4.D	4.V7	16DLL	16gLL
.	.	16c	16d
.	.	16F#	16b
.	.	16c	16d
.	.	16D	16a
.	.	16cJJ	16dJJ
=128	=128	=128	=128
4.T	4.I	16GGLL	16gLL
.	.	16G	16d
.	.	16BB	16c#
.	.	16G	16d
.	.	16D	16c#
.	.	16GJJ	16dJJ
4T	4I	16GGLL	16c#LL
.	.	16G	16d
.	.	16BB	16c#
.	.	16G	16d
*-	*-	*-	*-
!!!COM: Beethoven
!!!OTL: 6 Variationen uber "Nel cor piu non mi sento" von G. Paisiello
!!!Variation: Variation 6 c
**function	**kern	**kern	**kern
*	*	*clefF4	*clefG2
*	*	*k[f#]	*k[f#]
*M6/8	*M6/8	*M6/8	*M6/8
*G:	*G:	*G:	*G:
8T	8I	16D	16dd
.	.	16GJJ	16dJJ
=129	=129	=129	=129
2.P	2.V7b/ii	16GG#LL	16ddLL
.	.	16E	16e
.	.	16BB	16ff
.	.	16E	16e
.	.	16D	16ee
.	.	16EJJ	16eJJ
.	.	16GG#LL	16ddLL
.	.	16E	16e
.	.	16BB	16cc
.	.	16E	16e
.	.	16D	16b
.	.	16EJJ	16eJJ
=130	=130	=130	=130
2.P	2.ii	16AALL	16ddLL
.	.	16A	16e
.	.	16C	16cc
.	.	16A	16e
.	.	16E	16cc
.	.	16AJJ	16eJJ
.	.	16AALL	16ccLL
.	.	16A	16e
.	.	16C	16b
.	.	16A	16e
.	.	16E	16cc
.	.	16AJJ	16eJJ
=131	=131	=131	=131
2.D	2.V7	16DLL	16ccLL
.	.	16c	16f#
.	.	16F#	16ee
.	.	16c	16f#
.	.	16A	16dd
.	.	16cJJ	16f#JJ
.	.	16DLL	16ccLL
.	.	16c	16f#
.	.	16F#	16b
.	.	16c	16f#
.	.	16A	16a
.	.	16cJJ	16f#JJ
=132	=132	=132	=132
2.D	2.I	16GGLL	16ccLL
.	.	16G	16g
.	.	16BB	16b
.	.	16G	16g
.	.	16D	16b
.	.	16GJJ	16gJJ
.	.	16GGLL	16bLL
.	.	16G	16g
.	.	16BB	16a#
.	.	16G	16g
.	.	16D	16b
.	.	16GJJ	16gJJ
=133	=133	=133	=133
2.D	2.V7c/V	16ELL	16cc#LL
.	.	16c#	16g
.	.	16G	16gg
.	.	16c#	16g
.	.	16A	16ff#
.	.	16c#JJ	16gJJ
.	.	16ELL	16eeLL
.	.	16c#	16g
.	.	16G	16dd
.	.	16c#	16g
.	.	16A	16cc#
.	.	16c#JJ	16gJJ
=134	=134	=134	=134
2.D	2.V	4.D; 4.F#; 4.A; 4.d;	4.f#; 4.dd;
.	.	4r	8r
.	.	.	8r
.	.	8r	16ddLL
.	.	.	16dJJ
=135	=135	=135	=135
4.D	4.V7b	16FF#LL	16aLL 16cc
.	.	16D	16d
.	.	16C#	16c#
.	.	16D	16d
.	.	16FF#	16a 16cc
.	.	16DJJ	16dJJ
4.D	4.I	16GGLL	16gLL 16b
.	.	16D	16d
.	.	16C#	16c#
.	.	16D	16d
.	.	16GG	16g 16b
.	.	16DJJ	16dJJ
=136	=136	=136	=136
2.D	2.V	16DDLL	16f#LL 16a
.	.	16D	16d
.	.	16C#	16c#
.	.	16D	16d
.	.	16C#	16c#
.	.	16DJJ	16dJJ
.	.	16CLL	16f#LL
.	.	16D	16d
.	.	16BB	16g
.	.	16D	16d
.	.	16AA	16f# 16a
.	.	16DJJ	16dJJ
*-	*-	*-	*-
!!!COM: Beethoven
!!!OTL: 6 Variationen uber "Nel cor piu non mi sento" von G. Paisiello
!!!Variation: Variation 6 d
**function	**kern	**kern	**kern
*	*	*clefF4	*clefG2
*	*	*k[f#]	*k[f#]
*M6/8	*M6/8	*M6/8	*M6/8
*G:	*G:	*G:	*G:
=137	=137	=137	=137
4.T	4.I	16GGLL	16bLL
.	.	16G	16d
.	.	16D	16a#
.	.	16G	16d
.	.	16GG	16b
.	.	16GJJ	16dJJ
4.T	4.V7c	16AALL	16ccLL
.	.	16A	16d
.	.	16D	16b
.	.	16A	16d
.	.	16AA	16cc
.	.	16AJJ	16dJJ
=138	=138	=138	=138
4.T	4.Ib	16BBLL	16ddLL
.	.	16B	16d
.	.	16G	16cc#
.	.	16B	16d
.	.	16BB	16dd
.	.	16BJJ	16dJJ
4.P	4.IV	16CLL	16eeLL
.	.	16c	16e
.	.	16G	16dd#
.	.	16c	16e
.	.	16C	16ee
.	.	16cJJ	16eJJ
=139	=139	=139	=139
4.D	4.Cc	16DLL	16eeLL
.	.	16B	16d
.	.	16G	16g
.	.	16B	16d
.	.	16D	16g
.	.	16BJJ	16dJJ
4.D	4.V7	16DLL	16gLL
.	.	16c	16d
.	.	16F#	16b
.	.	16c	16d
.	.	16D	16a
.	.	16cJJ	16dJJ
=140	=140	=140	=140
4.T	4.I	4G	16gLL
.	.	.	16d
.	.	.	16B
.	.	.	16d
.	.	8r	16B
.	.	.	16GJJ
*-	*-	*-	*-
!!!COM: Beethoven
!!!OTL: 6 Variationen uber "Nel cor piu non mi sento" von G. Paisiello
!!!Variation: Variation 6 e
**function	**kern	**kern	**kern
*	*	*clefF4	*clefF4
*	*	*k[f#]	*k[f#]
*M6/8	*M6/8	*M6/8	*M6/8
*G:	*G:	*G:	*G:
4.T	4.V	8r	16F#LL
.	.	.	16A
.	.	8r	16d
.	.	.	16A
.	.	8D	16F#
.	.	.	16AJJ
=141	=141	=141	=141
4.T	4.Ib	4BB	16GLL
.	.	.	16B
.	.	.	16d
.	.	.	16B
.	.	8BB	16G
.	.	.	16BJJ
4.T	4.V7c	4AA	16F#LL
.	.	.	16c
.	.	.	16d
.	.	.	16c
.	.	8AA	16F#
.	.	.	16cJJ
=142	=142	=142	=142
4.T	4.I	4GG	16GLL
.	.	.	16B
.	.	.	16d
.	.	.	16B
.	.	8r	16G
.	.	.	16BJJ
4.T	4.V	4r	16F#LL
.	.	.	16A
.	.	.	16d
.	.	.	16A
*	*	*clefG2	*
.	.	8ddd	16F#
.	.	.	16AJJ
=143	=143	=143	=143
4.T	4.I	4bb	16GLL
.	.	.	16B
.	.	.	16d
.	.	.	16B
.	.	8bb	16G
.	.	.	16BJJ
*	*	*	*clefG2
4.T	4.V7d	4aa	16cLL
.	.	.	16d
.	.	.	16f#
.	.	.	16d
.	.	8aa	16c
.	.	.	16dJJ
=144	=144	=144	=144
4.T	4.Ib	4gg	16BLL
.	.	.	16d
.	.	.	16g
.	.	.	16d
*	*	*	*clefF4
.	.	8r	16B
.	.	.	16GJJ
4.T	4.V	8r	16F#LL
.	.	.	16A
*	*	*clefF4	*
.	.	16C#LL	16d
.	.	16D	16A
.	.	16C#	16F#
.	.	16DJJ	16AJJ
=145	=145	=145	=145
4.T	4.Ib	8BBL	16GLL
.	.	.	16B
.	.	16C#L	16d
.	.	16D	16B
.	.	16C#	16G
.	.	16DJJ	16BJJ
4.T	4.V7c	8AAL	16F#LL
.	.	.	16c
.	.	16C#L	16d
.	.	16D	16c
.	.	16C#	16F#
.	.	16DJJ	16cJJ
=146	=146	=146	=146
4.T	4.I	4GG	16GLL
.	.	.	16B
.	.	.	16d
.	.	.	16B
.	.	8r	16G
.	.	.	16BJJ
4.T	4.Vb	8r	16F#LL
.	.	.	16A
*	*	*clefG2	*
.	.	16ccc#LL	16d
.	.	16ddd	16A
.	.	16ccc#	16F#
.	.	16dddJJ	16AJJ
=147	=147	=147	=147
4.T	4.I	8bbL	16GLL
.	.	.	16B
.	.	16ccc#L	16d
.	.	16ddd	16B
.	.	16ccc#	16G
.	.	16dddJJ	16BJJ
4.T	4.V7d	8aaL	16cLL
.	.	.	16d
.	.	16ccc#L	16f#
.	.	16ddd	16d
.	.	16ccc#	16c
.	.	16dddJJ	16dJJ
=148	=148	=148	=148
2.P	2.viioD7c/ii	4gg#	16BLL
.	.	.	16d
.	.	.	16f
.	.	.	16d
.	.	8r	16B
.	.	.	16dJJ
.	.	4r	16BLL
.	.	.	16d
.	.	.	16f
.	.	.	16d
*	*	*clefF4	*
.	.	8DD 8D	16B
.	.	.	16dJJ
=149	=149	=149	=149
*	*	*	*clefG2
4.P	4.V7b/ii	4GGG# 4GG#	16BLL
.	.	.	16d
.	.	.	16e
.	.	.	16d
.	.	8GGG# 8GG#	16B
.	.	.	16dJJ
4.P	4.V7d/ii	4DD 4D	16BLL
.	.	.	16e
.	.	.	16g#
.	.	.	16e
.	.	8DD 8D	16B
.	.	.	16eJJ
=150	=150	=150	=150
4.P	4.iib	4.CC 4.C	16ALL
.	.	.	16e
.	.	.	16a
.	.	.	16e
.	.	.	16A
.	.	.	16eJJ
4.P	4.viioD7/V	4.CC# 4.C#	16eLL
.	.	.	16g
.	.	.	16b-
.	.	.	16g
.	.	.	16e
.	.	.	16gJJ
=151	=151	=151	=151
4.D	4.Cc	4.DD 4.D	16dLL
.	.	.	16g
.	.	.	16b
.	.	.	16g
.	.	.	16d
.	.	.	16gJJ
4.D	4.V7	4.DD	16dLL
.	.	.	16f#
.	.	.	16cc
.	.	.	16f#
.	.	.	16d
.	.	.	16f#JJ
=152	=152	=152	=152
4.T	4.I	16GGLL	4d 4g 4b
.	.	16D	.
.	.	16G	.
.	.	16D	.
.	.	16GG	8r
.	.	16DJJ	.
4T	4I	16BBLL	4r
.	.	16D	.
.	.	16G	.
.	.	16D	.
*-	*-	*-	*-
!!!COM: Beethoven
!!!OTL: 6 Variationen uber "Nel cor piu non mi sento" von G. Paisiello
!!!Variation: Variation 6 f
**function	**kern	**kern	**kern
*	*	*clefF4	*clefG2
*	*	*k[f#]	*k[f#]
*M6/8	*M6/8	*M6/8	*M6/8
*G:	*G:	*G:	*G:
8T	8Ib	16BB	8dd 8ddd
.	.	16DJJ	.
=153	=153	=153	=153
2.P	2.V7c/ii	16BBLL	4g# 4gg#
.	.	16D	.
.	.	16G#	.
.	.	16D	.
.	.	16BB	8g# 8gg#
.	.	16DJJ	.
.	.	16BBLL	4ee 4eee
.	.	16D	.
.	.	16G#	.
.	.	16D	.
.	.	16BB	8ee 8eee
.	.	16DJJ	.
=154	=154	=154	=154
4.P	4.iib	16CLL	4.a 4.aa
.	.	16E	.
.	.	16A	.
.	.	16E	.
.	.	16C	.
.	.	16EJJ	.
4.P	4.viioD7/V	16C#LL	4.b- 4.bb-
.	.	16G	.
.	.	16B-	.
.	.	16G	.
.	.	16C#	.
.	.	16GJJ	.
=155	=155	=155	=155
4.D	4.Cc	16DLL	4.b 4.bb
.	.	16G	.
.	.	16B	.
.	.	16G	.
.	.	16D	.
.	.	16GJJ	.
4.D	4.V7	16DLL	4cc 4ccc
.	.	16F#	.
.	.	16c	.
.	.	16F#	.
.	.	16D	8a 8aa
.	.	16F#JJ	.
=156	=156	=156	=156
4.T	4.I	16GGLL	4g 4gg
.	.	16BB	.
.	.	16G	.
.	.	16BB	.
.	.	16G	8r
.	.	16BBJJ	.
*-	*-	*-	*-
!!!COM: Beethoven
!!!OTL: 6 Variationen uber "Nel cor piu non mi sento" von G. Paisiello
!!!Variation: Variation 6 g
**function	**kern	**kern	**kern
*	*	*clefF4	*clefG2
*	*	*k[f#]	*k[f#]
*M6/8	*M6/8	*M6/8	*M6/8
*G:	*G:	*G:	*G:
4.T	4.V7/IV	16GGLL	4r
.	.	16BB	.
.	.	16F	.
.	.	16BB	.
.	.	16F	8g
.	.	16BBJJ	.
=157	=157	=157	=157
4.T	4.IVc	16GGLL	(4e
.	.	16C	.
.	.	16E	.
.	.	16C	.
.	.	16E	8g)
.	.	16CJJ	.
4.T	4.V7/IV	16GGLL	(4d
.	.	16BB	.
.	.	16F	.
.	.	16BB	.
.	.	16F	8g)
.	.	16BBJJ	.
=158	=158	=158	=158
4.T	4.IVc	16GGLL	4c
.	.	16C	.
.	.	16E	.
.	.	16C	.
.	.	16E	8r
.	.	16CJJ	.
4.T	4.V7	16GGLL	4r
.	.	16AA	.
.	.	16F#	.
.	.	16AA	.
.	.	16F#	8dd
.	.	16AAJJ	.
=159	=159	=159	=159
4.T	4.I	16GGLL	(4b
.	.	16BB	.
.	.	16G	.
.	.	16BB	.
.	.	16G	8dd)
.	.	16BBJJ	.
4.T	4.V7	16GGLL	(4a
.	.	16C	.
.	.	16F#	.
.	.	16C	.
.	.	16F#	8dd)
.	.	16CJJ	.
=160	=160	=160	=160
4.T	4.I	16GGLL	4g
.	.	16BB	.
.	.	16G	.
.	.	16BB	.
.	.	16G	8r
.	.	16BBJJ	.
4.T	4.V7/IV	16GGLL	8r
.	.	16BB	.
.	.	16F	(16aaLL
.	.	16BB	16gg)
.	.	16F	16aa
.	.	16BBJJ	16ggJJ)
=161	=161	=161	=161
4.T	4.IVc	16GGLL	8ee'L
.	.	16C	.
.	.	16E	(16aaL
.	.	16C	16gg
.	.	16E	16aa
.	.	16CJJ	16ggJJ)
4.T	4.V7/IV	16GGLL	8dd'L
.	.	16BB	.
.	.	16F	(16aaL
.	.	16BB	16gg
.	.	16F	16aa
.	.	16BBJJ	16ggJJ)
=162	=162	=162	=162
4.T	4.IVc	16GGLL	4cc
.	.	16C	.
.	.	16E	.
.	.	16C	.
.	.	16E	8r
.	.	16CJJ	.
4.T	4.V7	16GGLL	8r
.	.	16AA	.
.	.	16F#	(16eeeLL
.	.	16AA	16ddd
.	.	16F#	16eee
.	.	16AAJJ	16dddJJ)
=163	=163	=163	=163
4.T	4.I	16GGLL	8bb'L
.	.	16BB	.
.	.	16G	(16eeeL
.	.	16BB	16ddd
.	.	16G	16eee
.	.	16BBJJ	16dddJJ)
4.T	4.V7	16GGLL	8aa'L
.	.	16C	.
.	.	16F#	(16eeeL
.	.	16C	16ddd
.	.	16F#	16eee
.	.	16CJJ	16dddJJ)
=164	=164	=164	=164
4.T	4.I	16GGLL	4gg
.	.	16BB	.
.	.	16G	.
.	.	16BB	.
.	.	16G	8r
.	.	16BBJJ	.
4.T	4.V7	16GGLL	8r
.	.	16C	.
.	.	16F#	(16eeLL
.	.	16C	16dd
.	.	16F#	16ee
.	.	16CJJ	16ddJJ)
=165	=165	=165	=165
4.T	4.I	16GGLL	4g
.	.	16BB	.
.	.	16G	.
.	.	16BB	.
.	.	16G	8r
.	.	16BBJJ	.
4.T	4.V7	16GGLL	8r
.	.	16C	.
.	.	16F#	(16eLL
.	.	16C	16d
.	.	16F#	16e
.	.	16CJJ	16dJJ)
=166	=166	=166	=166
2.T	2.I	16GGLL	4B
.	.	16BB	.
.	.	16D	.
.	.	16G	.
.	.	16D	8r
.	.	16BBJJ	.
.	.	16GGLL	4B 4g
.	.	16BB	.
.	.	16D	.
.	.	16G	.
.	.	16D	8r
.	.	16BBJJ	.
=167	=167	=167	=167
2.T	2.I	4GG	4B 4g
.	.	8r	8r
.	.	4r;	4r;
.	.	8r;	8r;
==	==	==	==
*-	*-	*-	*-
